src/images/svg/symbols/markets-stocks-and-indices/american-stocks/stocks-pepsico.svg

<svg width="32" height="32" viewBox="0 0 32 32" fill="none" xmlns="http://www.w3.org/2000/svg">
<path d="M0 16C0 7.16344 7.16344 0 16 0C24.8366 0 32 7.16344 32 16C32 24.8366 24.8366 32 16 32C7.16344 32 0 24.8366 0 16Z" fill="#F2F3F4"/>
<g clip-path="url(#clip0_13177_34336)">
<path fill-rule="evenodd" clip-rule="evenodd" d="M9.19923 16.9726H9.84684C10.0995 16.9726 10.1956 17.0598 10.1956 17.2734C10.1956 17.479 10.0995 17.5661 9.84684 17.5661H9.19923V16.9726ZM8.19595 19.1326H9.19928V18.2543H10.274C10.9855 18.2543 11.2417 17.8352 11.2417 17.2932C11.2417 16.6642 10.9782 16.3082 10.2667 16.3082H8.19595V19.1326ZM11.5725 16.3082H14.2729V16.9964H12.5759V17.3762H14.1521V18.0646H12.5759V18.4443H14.2729V19.1326H11.5725V16.3082ZM15.6962 16.9726H16.3437C16.5964 16.9726 16.6925 17.0598 16.6925 17.2734C16.6925 17.479 16.5964 17.5661 16.3437 17.5661H15.6962V16.9726ZM14.6929 19.1326H15.6962V18.2543H16.7707C17.4824 18.2543 17.7386 17.8352 17.7386 17.2932C17.7386 16.6642 17.4752 16.3082 16.7635 16.3082H14.6929V19.1326ZM18.7098 17.934C18.2188 17.8508 18.0162 17.5344 18.0162 17.1389C18.0162 16.407 18.6602 16.2093 19.4854 16.2093C20.6167 16.2093 21.0829 16.5375 21.1186 17.135H19.9515C19.9515 17.0202 19.891 16.9489 19.7986 16.9093C19.7096 16.8659 19.5959 16.8501 19.4854 16.8501C19.1866 16.8501 19.0835 16.9331 19.0835 17.0519C19.0835 17.1309 19.1154 17.1825 19.215 17.1982L20.414 17.3959C20.9193 17.479 21.2325 17.7401 21.2325 18.2186C21.2325 18.9072 20.7272 19.2315 19.5993 19.2315C18.8272 19.2315 17.984 19.1129 17.9805 18.2821H19.1901C19.1935 18.377 19.2257 18.4402 19.297 18.4838C19.3715 18.5234 19.4819 18.5432 19.6383 18.5432C19.9514 18.5432 20.0369 18.4482 20.0369 18.3137C20.0369 18.2306 19.9906 18.1476 19.8556 18.124L18.7098 17.934ZM21.5597 16.3082H22.5629V19.1326H21.5597V16.3082ZM26.2813 18.0329C26.2172 18.4048 26.1032 18.7054 25.8541 18.911C25.6088 19.1168 25.2244 19.2315 24.6126 19.2315C24.0042 19.2315 22.8763 19.1839 22.8763 17.7205C22.8763 16.2568 24.0042 16.2093 24.6126 16.2093C25.2173 16.2093 26.1495 16.2962 26.2813 17.4159H25.1499C25.1214 17.2139 25.0002 16.9213 24.6126 16.9213C24.2032 16.9213 23.9435 17.1467 23.9435 17.7205C23.9435 18.2941 24.1962 18.5194 24.5627 18.5194C24.8794 18.5194 25.068 18.373 25.1498 18.0329L26.2813 18.0329ZM27.5941 17.7206C27.5941 17.1468 27.8539 16.9213 28.2631 16.9213C28.6722 16.9213 28.9321 17.1468 28.9321 17.7206C28.9321 18.2941 28.6722 18.5195 28.2631 18.5195C27.8539 18.5194 27.5941 18.2941 27.5941 17.7206ZM26.5266 17.7206C26.5266 19.1839 27.6545 19.2316 28.2631 19.2316C28.8715 19.2316 29.9994 19.184 29.9994 17.7206C29.9994 16.2568 28.8715 16.2093 28.2631 16.2093C27.6545 16.2093 26.5266 16.2568 26.5266 17.7206ZM6.67987 16.3362C6.74466 14.9812 5.57608 13.4552 3.98297 13.2666L3.98569 13.248C5.55625 13.248 6.76026 14.702 6.76026 15.8491C6.75875 16.0878 6.73989 16.2358 6.70626 16.3432L6.67987 16.3362ZM6.58471 16.5085C6.48022 16.6362 6.3488 16.7647 6.19483 16.8867C5.91158 15.2577 4.71447 13.8332 3.86813 13.4174L3.85 13.43C4.70116 14.1286 5.71635 15.4853 6.11114 16.9507C5.90976 17.0986 5.69224 17.2232 5.46274 17.322C4.65955 16.406 3.91075 14.6396 3.66944 13.5186L3.6449 13.526C3.65034 14.6141 4.42286 16.4612 5.36496 17.3626C5.14888 17.4481 4.92426 17.5101 4.69494 17.5477C3.79187 17.1899 3.14907 16.0441 3.14907 14.8703C3.14907 14.1041 3.38269 13.6301 3.42789 13.533L3.40865 13.5254C3.35397 13.6081 3.01172 14.0819 3.01172 14.9091C3.01172 16.2359 3.66604 17.25 4.53474 17.5694C4.2241 17.6036 3.91001 17.5888 3.60393 17.5257L3.59746 17.5459C3.69039 17.5801 4.00567 17.7125 4.48663 17.7125C5.57448 17.7125 6.30987 17.0366 6.6059 16.5228L6.58471 16.5085Z" fill="#28458E"/>
<path fill-rule="evenodd" clip-rule="evenodd" d="M4.37758 12.7676C3.55291 12.7676 2.58594 13.3628 2.58594 13.9068C2.58594 14.1173 2.77845 14.295 3.17688 14.295C4.10182 14.295 4.96114 13.6596 4.96114 13.1654C4.96114 12.9054 4.71143 12.7676 4.37758 12.7676ZM4.70681 13.1501C4.70681 13.5666 3.90697 14.0758 3.23836 14.0758C2.94296 14.0758 2.78336 13.9595 2.78336 13.7677C2.78336 13.3452 3.59228 12.8447 4.21943 12.8447C4.62832 12.8447 4.70681 13.0527 4.70681 13.1501Z" fill="#0096D6"/>
<path fill-rule="evenodd" clip-rule="evenodd" d="M2.25859 14.1593C2.23541 14.1994 2.14258 14.3812 2.14258 14.5675C2.14258 14.9129 2.49159 15.2335 3.13352 15.2335C4.36844 15.2335 5.79519 14.3245 5.79519 13.4808C5.79519 13.102 5.43665 12.8961 5.18771 12.8535L5.18305 12.8683C5.26047 12.8928 5.54411 13.0246 5.54411 13.362C5.54411 14.0343 4.2844 14.9504 3.02961 14.9504C2.54923 14.9504 2.24659 14.7133 2.24659 14.3678C2.24659 14.2586 2.26933 14.1866 2.27536 14.1658L2.25859 14.1593Z" fill="#EB7B30"/>
<path fill-rule="evenodd" clip-rule="evenodd" d="M6.30387 13.5449C6.33775 13.5706 6.54115 13.7402 6.54115 14.0607C6.54115 15.1538 4.82853 16.2286 3.31445 16.2286C2.41154 16.2286 1.99993 15.7828 2.01816 15.3869H2.03434C2.06972 15.5925 2.36289 15.9604 3.15315 15.9604C4.66912 15.9604 6.36176 14.8482 6.36176 13.8738C6.36176 13.7067 6.31637 13.6025 6.2907 13.5562L6.30387 13.5449Z" fill="#00984A"/>
<path fill-rule="evenodd" clip-rule="evenodd" d="M6.87712 14.5645C6.88421 14.5877 6.9211 14.6924 6.9211 14.8563C6.9211 16.0722 5.18793 17.1131 3.68056 17.1131C2.90474 17.1131 2.4996 16.7363 2.41406 16.5832L2.42787 16.573C2.64254 16.7608 3.06537 16.9034 3.55882 16.9034C4.8901 16.9034 6.87658 15.8905 6.85884 14.5689L6.87712 14.5645Z" fill="#DF002C"/>
</g>
<defs>
<clipPath id="clip0_13177_34336">
<rect width="28" height="7.7728" fill="white" transform="translate(2 12.1133)"/>
</clipPath>
</defs>
</svg>

<svg width="32" height="32" fill="none" xmlns="http://www.w3.org/2000/svg"><path d="M0 16C0 7.163 7.163 0 16 0s16 7.163 16 16-7.163 16-16 16S0 24.837 0 16Z" fill="#F2F3F4"/><g clip-path="url(#a)" fill-rule="evenodd" clip-rule="evenodd"><path d="M9.2 16.973h.647c.253 0 .349.087.349.3 0 .206-.096.293-.35.293H9.2v-.593Zm-1.004 2.16h1.003v-.879h1.075c.712 0 .968-.419.968-.96 0-.63-.264-.986-.975-.986H8.196v2.825Zm3.377-2.825h2.7v.688h-1.697v.38h1.576v.689h-1.576v.38h1.697v.688h-2.7v-2.825Zm4.123.665h.648c.252 0 .348.087.348.3 0 .206-.096.293-.348.293h-.648v-.593Zm-1.003 2.16h1.003v-.879h1.075c.711 0 .968-.419.968-.96 0-.63-.264-.986-.976-.986h-2.07v2.825Zm4.017-1.199c-.491-.083-.694-.4-.694-.795 0-.732.644-.93 1.47-.93 1.13 0 1.597.329 1.633.926H19.95c0-.115-.06-.186-.152-.226a.734.734 0 0 0-.314-.059c-.298 0-.401.083-.401.202 0 .079.031.13.131.146l1.199.198c.505.083.819.344.819.823 0 .688-.506 1.012-1.634 1.012-.772 0-1.615-.118-1.619-.949h1.21c.003.095.036.158.107.202.075.04.185.06.341.06.313 0 .399-.096.399-.23 0-.083-.046-.166-.181-.19l-1.146-.19Zm2.85-1.626h1.003v2.825H21.56v-2.825Zm4.721 1.725c-.064.372-.178.672-.427.878-.245.206-.63.32-1.241.32-.609 0-1.737-.047-1.737-1.51 0-1.464 1.128-1.512 1.737-1.512.604 0 1.537.087 1.668 1.207H25.15c-.029-.202-.15-.495-.537-.495-.41 0-.67.226-.67.8 0 .573.253.798.62.798.316 0 .505-.146.587-.486h1.131Zm1.313-.312c0-.574.26-.8.67-.8.408 0 .668.226.668.8 0 .573-.26.799-.669.799-.41 0-.669-.226-.669-.8Zm-1.067 0c0 1.463 1.127 1.51 1.736 1.51.608 0 1.736-.047 1.736-1.51 0-1.464-1.127-1.512-1.736-1.512s-1.736.048-1.736 1.512ZM6.68 16.336c.065-1.355-1.104-2.88-2.697-3.07l.003-.018c1.57 0 2.774 1.454 2.774 2.601-.001.239-.02.387-.054.494l-.026-.007Zm-.095.173a2.554 2.554 0 0 1-.39.378c-.283-1.63-1.48-3.054-2.327-3.47l-.018.013c.851.699 1.866 2.055 2.261 3.52a3.3 3.3 0 0 1-.648.372c-.803-.916-1.552-2.682-1.794-3.803l-.024.007c.005 1.088.778 2.935 1.72 3.837a3.25 3.25 0 0 1-.67.185c-.903-.358-1.546-1.504-1.546-2.678 0-.766.234-1.24.279-1.337l-.02-.008c-.054.083-.396.557-.396 1.384 0 1.327.654 2.341 1.523 2.66a2.99 2.99 0 0 1-.931-.043l-.007.02c.093.034.409.166.89.166a2.475 2.475 0 0 0 2.119-1.19l-.021-.013Z" fill="#28458E"/><path d="M4.378 12.768c-.825 0-1.792.595-1.792 1.139 0 .21.192.388.59.388.926 0 1.785-.635 1.785-1.13 0-.26-.25-.397-.583-.397Zm.329.382c0 .417-.8.926-1.469.926-.295 0-.455-.117-.455-.308 0-.423.81-.923 1.436-.923.41 0 .488.208.488.305Z" fill="#0096D6"/><path d="M2.259 14.16a.923.923 0 0 0-.116.408c0 .345.349.665.99.665 1.235 0 2.662-.909 2.662-1.752 0-.379-.358-.585-.607-.627l-.005.014c.077.025.361.157.361.494 0 .672-1.26 1.588-2.514 1.588-.48 0-.783-.237-.783-.582 0-.11.022-.181.028-.202l-.016-.007Z" fill="#EB7B30"/><path d="M6.304 13.545a.655.655 0 0 1 .237.516c0 1.093-1.712 2.168-3.227 2.168-.902 0-1.314-.446-1.296-.842h.016c.036.205.329.573 1.12.573 1.515 0 3.208-1.112 3.208-2.086a.652.652 0 0 0-.071-.318l.013-.011Z" fill="#00984A"/><path d="M6.877 14.565c.007.023.044.127.044.291 0 1.216-1.733 2.257-3.24 2.257-.776 0-1.181-.377-1.267-.53l.014-.01c.215.188.637.33 1.13.33 1.332 0 3.319-1.012 3.3-2.334l.02-.005Z" fill="#DF002C"/></g><defs><clipPath id="a"><path fill="#fff" transform="translate(2 12.113)" d="M0 0h28v7.773H0z"/></clipPath></defs></svg>
